images_sukapura_svg/cmd/sc_splitwindow.svg

<svg height="16" viewBox="0 0 16 16" width="16" xmlns="http://www.w3.org/2000/svg" xmlns:xlink="http://www.w3.org/1999/xlink"><linearGradient id="a" gradientUnits="userSpaceOnUse" x1="10" x2="10" y1="0" y2="4"><stop offset="0" stop-color="#c8c8cb"/><stop offset="1" stop-color="#98989d"/></linearGradient><path d="m2 0c-.554 0-1 .446-1 1v6h1v-3-1-2h5 1 1 5v2 1 3h1v-6c0-.554-.446-1-1-1zm-1 10v5c0 .554.446 1 1 1h12c.554 0 .847804-.467316 1-1v-5h-1v3 1 1h-5-1-1-5v-1-1-3z" fill="#929292"/><g fill="#4d82b8"><path d="m2 1h12v3h-12z" fill="url(#a)"/><g fill="#ff6961"><rect height="1" ry=".5" width="4" y="8"/><rect height="1" ry=".5" width="4" x="6" y="8"/><rect height="1" ry=".5" width="4" x="12" y="8"/></g></g><path d="m2 4h12v3h-12z" fill="#fff"/><path d="m2 10h12v5h-12z" fill="#fff"/><path d="m2 4h12v1h-12z" fill="#929292"/></svg>

<?xml version="1.0" encoding="UTF-8" standalone="no"?>
<svg
   xmlns:dc="http://purl.org/dc/elements/1.1/"
   xmlns:cc="http://creativecommons.org/ns#"
   xmlns:rdf="http://www.w3.org/1999/02/22-rdf-syntax-ns#"
   xmlns:svg="http://www.w3.org/2000/svg"
   xmlns="http://www.w3.org/2000/svg"
   xmlns:xlink="http://www.w3.org/1999/xlink"
   xmlns:sodipodi="http://sodipodi.sourceforge.net/DTD/sodipodi-0.dtd"
   xmlns:inkscape="http://www.inkscape.org/namespaces/inkscape"
   viewBox="0 0 16 16"
   version="1.1"
   id="svg30"
   sodipodi:docname="sc_splitwindow.svg"
   inkscape:export-filename="/home/rizmut/Documents/Rizmut/Github/libreoffice-style-sukapura/images_sukapura/cmd/lc_splitwindow.png"
   inkscape:export-xdpi="96"
   inkscape:export-ydpi="96"
   inkscape:version="0.92.3 (unknown)"
   width="16"
   height="16">
  <metadata
     id="metadata36">
    <rdf:RDF>
      <cc:Work
         rdf:about="">
        <dc:format>image/svg+xml</dc:format>
        <dc:type
           rdf:resource="http://purl.org/dc/dcmitype/StillImage" />
        <dc:title />
      </cc:Work>
    </rdf:RDF>
  </metadata>
  <defs
     id="defs34">
    <linearGradient
       inkscape:collect="always"
       id="linearGradient2929">
      <stop
         style="stop-color:#c8c8cb;stop-opacity:1;"
         offset="0"
         id="stop2925" />
      <stop
         style="stop-color:#98989d;stop-opacity:1"
         offset="1"
         id="stop2927" />
    </linearGradient>
    <linearGradient
       inkscape:collect="always"
       xlink:href="#linearGradient2929"
       id="linearGradient865"
       x1="10"
       y1="0"
       x2="10"
       y2="4"
       gradientUnits="userSpaceOnUse" />
  </defs>
  <sodipodi:namedview
     pagecolor="#ffffff"
     bordercolor="#666666"
     borderopacity="1"
     objecttolerance="10"
     gridtolerance="10"
     guidetolerance="10"
     inkscape:pageopacity="0"
     inkscape:pageshadow="2"
     inkscape:window-width="1366"
     inkscape:window-height="699"
     id="namedview32"
     showgrid="true"
     inkscape:zoom="6.9532165"
     inkscape:cx="-7.2662306"
     inkscape:cy="10.576254"
     inkscape:window-x="0"
     inkscape:window-y="0"
     inkscape:window-maximized="1"
     inkscape:current-layer="svg30"
     showguides="false">
    <inkscape:grid
       type="xygrid"
       id="grid843" />
  </sodipodi:namedview>
  <g
     id="g1512">
    <path
       id="path2"
       d="M 2,0 C 1.446,0 1,0.446 1,1 V 7 H 2 V 4 3 1 h 5 1 1 5 v 2 1 3 h 1 V 1 C 15,0.446 14.554,0 14,0 Z M 1,10 v 5 c 0,0.554 0.446,1 1,1 h 12 c 0.554,0 0.847804,-0.467316 1,-1 v -5 h -1 v 3 1 1 H 9 8 7 2 v -1 -1 -3 z"
       style="fill:#929292;fill-opacity:1"
       inkscape:connector-curvature="0" />
    <g
       id="g12"
       style="fill:#4d82b8">
      <path
         sodipodi:nodetypes="ccccc"
         style="fill:url(#linearGradient865);fill-opacity:1"
         id="path4-4"
         d="M 2,1 H 14 V 4 H 2 Z"
         inkscape:connector-curvature="0" />
      <rect
         style="fill:#ff6961;fill-opacity:1"
         id="rect6"
         y="8"
         width="4"
         ry="0.5"
         height="1"
         x="0" />
      <rect
         style="fill:#ff6961;fill-opacity:1"
         id="rect8-4"
         y="8"
         x="6"
         width="4"
         ry="0.5"
         height="1" />
      <rect
         style="fill:#ff6961;fill-opacity:1"
         id="rect10-3"
         y="8"
         x="12"
         width="4"
         ry="0.5"
         height="1" />
    </g>
    <path
       id="path14"
       d="M 2,4 H 14 V 7 H 2 Z"
       style="fill:#ffffff"
       inkscape:connector-curvature="0" />
    <path
       id="path16"
       d="m 2,10 h 12 v 5 H 2 Z"
       style="fill:#ffffff"
       inkscape:connector-curvature="0" />
    <rect
       y="4"
       x="2"
       height="1"
       width="12"
       id="rect867"
       style="opacity:1;fill:#929292;fill-opacity:1;stroke:none;stroke-width:2;stroke-linecap:round;stroke-linejoin:round;stroke-miterlimit:4;stroke-dasharray:none;stroke-opacity:1" />
  </g>
</svg>
